X:1
T:Title
%%score { 1 | 2 }
L:1/8
M:4/4
K:Bb
V:1 treble nm="Grand Piano"
V:2 bass 
V:1
 z4 z2[Q:1/4=100] [Fd]>[Ec] | [DB]2 [B,D]>[CE] [DF]2 [DF]>[DF] | G2 B>B [DB]2 [DF]>[DF] | %3
 B2 B>B B2 A>B | c6 [Fd]>[Ec] | [DB]2 [B,D]>[CE] [DF]2 [DF]>[DF] |[M:3/4] G2 B>B [DB]2 | %7
[M:1/4] [DF]>[DF] |[M:4/4] [EG][GB] [FB]>[Gc] d2 c>c |[M:3/4] [DB]6 |[M:1/4] [DB]>[DB] | %11
[M:4/4] c2 c>d c2 A>A | [DB]2 [DB]>[EG] [DF]2 [DF]>[DF] | B2 B>B B2 A>B | c6 [DB]>[Ec] | %15
 [Fd]2 [Fd]>[Fd] [Fd]2 [Fc]>[FB] | [Gc] [GB]2 [EG] [GB]2 GG | F2 B>B A2 c>c | [DB]6 z2 |] %19
V:2
 z4 z2 [B,,B,]>[B,,B,] | [B,,B,]2 [B,,F,]>[B,,F,] [B,,B,]2 [B,,B,]>[B,,B,] | %2
 [E,B,E]2 [E,G,E]>[E,G,E] [B,,F,]2 [B,,B,]>[B,,B,] | %3
 [G,B,D]2 [G,B,D]>[G,B,D] [G,B,D]2 [G,B,D]>[G,B,D] | [F,A,F]6 [B,,B,]>[B,,B,] | %5
 [B,,B,]2 [B,,F,]>[B,,F,] [B,,B,]2 [B,,B,]>[B,,B,] |[M:3/4] [E,B,E]2 [E,G,E]>[E,G,E] [B,,F,]2 | %7
[M:1/4] [B,,B,]>[B,,B,] |[M:4/4] [E,B,]2 [D,B,]>[E,B,] [F,B,F]2 [F,A,E]>[F,A,E] |[M:3/4] [B,,B,]6 | %10
[M:1/4] [B,,B,]>[B,,B,] |[M:4/4] [F,A,F]2 [F,A,F]>[F,B,F] [F,A,F]2 [F,CE]>[F,CE] | %12
 [B,,B,]2 [B,,B,]>[B,,B,] [B,,B,]2 [B,,B,]>[B,,B,] | %13
 [G,B,D]2 [G,B,D]>[G,B,D] [G,B,D]2 [G,CD]>[G,B,D] | [F,A,F]6 [B,,B,]>[B,,B,] | %15
 [B,,B,]2 [B,,B,]>[B,,B,] [B,,B,]2 [C,A,]>[D,B,] | [E,B,] [E,B,]2 [E,B,] [E,B,]2 [E,B,E][E,B,E] | %17
 [F,B,D]2 [F,DF]>[F,DF] [F,CE]2 [F,A,E]>[F,A,E] | [B,,B,]6 z2 |] %19

